X:1
T:The Baby of Bethlehem
T:The Baby of Bethlehem
T:Ralph P. Merrifield, 2002
T:© 2002, Ralph P. Merrifield (free duplication allowed &amp; encouraged) Courtesy of the Cyber Hymnal™
T:© 2002, Ralph P. Merrifield (free duplication allowed &amp; encouraged) Courtesy of the Cyber Hymnal™
T:© 2002, Ralph P. Merrifield (free duplication allowed &amp; encouraged) Courtesy of the Cyber Hymnal™
C:Ralph P. Merrifield, 2002
Z:© 2002, Ralph P. Merrifield (free duplication allowed & encouraged)
Z:Courtesy of the Cyber Hymnal™
%%score 1 2 3
L:1/8
Q:1/4=104
M:4/4
K:G
V:1 treble 
V:2 treble 
V:3 bass 
V:1
"^G" z8 | z4 z2 (GA) |:"^G" B2 d2"^C" c2 B2 |"^D" A2 (GA)"^G" B4 |"^Am7" E2 G2"^C" c2 B2 | %5
w: |1.~A- *|noint- ed One, Mes-|si- ah, * Lord.|Sav- ior, Christ, Good|
w: |2.~(The) *|Word, now flesh, in|Him is * life.|One and On- ly,|
w: |3.~(Alpha) *|and O- me- ga,|Mas- ter~and * Friend.|All in all, For-|
"^A7" B2 (AG)"^D" A2 D2 |"^C" E2 (FG)"^D" A2 (Bc) |"^G" d2 ed"^Em" G3 E |"^Am7" E2 cB"^D" A3 B | %9
w: News, Great * Joy, E-|ter- nal * God, now *|dwell- ing with man. The|Ba- by of Beth- le-|
w: Shin- ing * Light. Full|grace and * truth, we *|now un- der- stand, The|Ba- by of Beth- le-|
w: giv- er~of * sin, Cre-|at- or,~De- * sign- er,~Be- *|gin- ning and End. The|Ba- by of Beth- le-|
"^E" B6 D2 |"^Am7" E2 cB"^D" A3 G |"^G" G8 | z4 z2 (GA) | B2 d2"^C" c2 B2 |"^D" A2 (GA)"^G" B4 | %15
w: hem, the|Ba- by of Beth- le-|hem.|Im- *|man- u- el, the|Ho- ly * Son,|
w: hem, the|Ba- by of Beth- le-|hem.|Ever- *|last- ing Fa- ther,|Prince of * Peace,|
w: hem, the|Ba- by of Beth- le-|hem.|All *|glor- y, hon- or,|bless- ing~and * strength,|
"^Am7" (EE) G2"^C" c2 B2 |"^A7" B2 (AG)"^D" A2 D2 |"^C" E2 FG"^D" A2 (Bc) |"^G" d2 ed"^Em" G3 E | %19
w: Shep- * herd, Rul- er,|Might- y * One. De-|scend- ed to Earth ac- *|cord- ing to plan, The|
w: Wonder- * ful Coun- s’lor,|King of * Kings. No|end there will be to *|Your i- n- crease, The|
w: Wis- * dom, pow- er,|mer- cy~and * grace, Past,|pre- sent, and fu- ture~con- *|tained in His hands, The|
"^Am7" E2 cB"^D" A3 B |"^E" B6 D2 |1,2"^Am7" E2 cB"^D" A3 G |"^G" G8 |"^G" z4"^Bridge" z2 d2 | %24
w: Ba- by of Beth- le-|hem, the|Ba- by of Beth- le-|hem.||
w: Ba- by of Beth- le-|hem, the|Ba- by of Beth- le-|hem.|With|
w: Ba- by of Beth- le-|hem, the|Ba- by of Beth- le-|hem.|~|
"^D" d2 cB A2 c2 |"^G" c2 B4 B2 |"^B7" B2 AG F2 A2 |"^Em" G6 A2 |"^A7" A2 GF E2 G2 |"^D" G2 F4 F2 | %30
w: ||||||
w: an- gels we sing Your|glor- y, with|shep- herds we give God|praise, with|wise- men we come be-|fore You, to|
w: ~ ~ ~ ~ ~|~ ~ ~|~ ~ ~ ~ ~|~ ~|~ ~ ~ ~ ~|~ ~ ~|
"^A7" G2 AB ^c3 d |"^D" d8 |"^D7" z4 z2 (GA) :|3"^Am7" E2 cB"^D" A3 B ||"^E" B4 z2 D2 | %35
w: |||||
w: wor- ship You all our|days!|2.~The *|||
w: ~ ~ ~ ~ ~|~|3.~Alpha *|Ba- by of Beth- le-|hem, the|
"^Am7" E4 c2 B2 |"^D" A6 G2 |"^G" G8- | G2 z4 |] %39
w: ||||
w: ||||
w: Ba- by of|Beth- le-|hem.||
V:2
 G4 G4 | G4 G2 (GA) |: [DB]2 [Gd]2 [Gc]2 [EB]2 | [DA]2 ([DG][DA]) [DB]4 | %4
 [A,E]2 [EG]2 [Gc]2 [EGB]2 | [EGB]2 ([EA][EG]) [DA]2 [A,D]2 | [CE]2 ([CF][EG]) [DA]2 ([FB][Ac]) | %7
 [Gd]2 [Be][Gd] [EG]3 [B,E] | [A,E]2 [Gc][GB] [FA]3 [FB] | [EB]6 [B,D]2 | %10
 [A,E]2 [Ac][GB] [DA]3 [DG] | [DG]4 [DB]4 | D4 D2 ([DG][DA]) | [GB]2 [Gd]2 [Ec]2 [GB]2 | %14
 [FA]2 ([DG][FA]) [DB]4 | ([A,E][A,E]) [DG]2 [Gc]2 [EB]2 | [CGB]2 ([EA][EG]) [DA]2 [A,D]2 | %17
 [CE]2 [CF][EG] [DA]2 ([FB][Ac]) | [Gd]2 [Be][Gd] [EG]3 [B,E] | [A,E]2 [Ac][A,EB] [DA]3 [FB] | %20
 [EB]6 [B,D]2 |1,2 [A,E]2 [Ac][A,EB] [FA]3 [DG] | [DG]8 | G4 G2 [Gd]2 | %24
 [Ad]2 [Ac][FB] [DA]2 [Ac]2 | [Gc]2 [DB]4 [DB]2 | [FB]2 [^DA][A,DG] [DF]2 [FA]2 | [B,G]6 [EA]2 | %28
 [EA]2 [^CG][A,F] [A,E]2 [CG]2 | [DG]2 [DF]4 [DF]2 | [EG]2 [EA][EGB] [G^c]3 [EAd] | [Fd]8 | %32
 [DF]4 [DF]2 ([DG][FA]) :|3 [A,E]2 [Ac][A,EB] [DA]3 [FB] || [EB]4 z2 [B,D]2 | %35
 [A,E]4 [Ac]2 [A,EB]2 | [FA]6 [DG]2 | [DG]8- | [DG]2 z4 |] %39
V:3
 [D,B,]4 [D,B,]4 | [D,B,]4 [D,B,]2 ([D,B,][G,B,]) |: [D,G,]2 [D,B,]2 [E,G,]2 [C,G,]2 | %3
 [F,A,]2 ([F,A,][F,A,]) [D,G,]4 | [C,G,]2 [C,A,]2 [E,A,]2 [E,A,]2 | %5
 [^C,A,]2 ([C,G,][C,A,]) [D,F,]2 [D,F,]2 | [C,G,]2 ([E,G,][C,E,]) [D,F,]2 ([D,A,][D,F,]) | %7
 [D,B,]2 [D,G,][D,B,] [E,B,]3 [D,G,] | [C,G,]2 [E,A,][C,E,A,] [D,F,]3 [D,A,] | [^G,B,]6 [E,G,]2 | %10
 [C,G,]2 [E,G,][C,E,A,] [D,F,]3 [F,A,] | [B,,G,]4 [B,,G,]4 | [D,G,]4 [D,G,]2 ([D,B,][G,B,]) | %13
 [B,,D,]2 [D,B,]2 [C,G,]2 [C,E,]2 | [D,A,]2 ([F,A,][D,A,]) [D,G,]4 | %15
 ([C,G,][C,G,]) [C,E,]2 [C,E,]2 [C,G,]2 | [E,A,]2 ([C,G,][C,A,]) [F,A,]2 [D,F,]2 | %17
 [C,G,]2 [E,G,][C,G,] [D,F,]2 ([D,A,][D,F,]) | [B,,G,]2 [D,G,][B,,G,] [E,B,]3 [B,,G,] | %19
 [C,G,]2 [E,G,][C,G,] [F,A,]3 [D,A,] | [B,,G,]6 [E,G,]2 |1,2 [C,G,]2 [E,G,][C,G,] [D,A,]3 [F,A,] | %22
 [B,,G,]8 | [D,B,]4 [D,B,]2 [D,B,]2 | [D,F,]2 [D,F,][D,A,] [D,F,]2 [D,F,]2 | %25
 [D,B,]2 [D,G,]4 [D,G,]2 | [^D,A,]2 [B,,F,][B,,F,] [B,,A,]2 [D,B,]2 | [B,,E,]6 [B,,G,]2 | %28
 [^C,G,]2 [E,A,][C,E,G,] [C,G,]2 [E,A,]2 | [F,A,]2 [D,A,]4 [D,A,]2 | %30
 [^C,A,]2 [C,G,][C,A,] [E,A,]3 [C,G,] | [D,A,]8 | [D,A,]4 [D,A,]2 ([F,A,][D,F,]) :|3 %33
 [C,G,]2 [E,G,][C,G,] [F,A,]3 [D,A,] || [E,G,]4 z2 [E,G,]2 | [C,G,]4 [E,G,]2 [C,G,]2 | %36
 [D,A,]6 [F,A,]2 | [G,B,]8- | [G,B,]2 z4 |] %39

